feline/static/images/website-logo.svg

<?xml version="1.0" encoding="UTF-8"?>
<svg width="183px" height="54px" viewBox="0 0 183 54" version="1.1" xmlns="http://www.w3.org/2000/svg" xmlns:xlink="http://www.w3.org/1999/xlink">
    <title>Logo oficial</title>
    <g id="Color-Versions" stroke="none" stroke-width="1" fill="none" fill-rule="evenodd">
        <g id="Homepage-2" transform="translate(-292.000000, -26.000000)">
            <g id="Logo-oficial" transform="translate(292.000000, 26.000000)">
                <path d="M26.8700633,54 C32.5558805,54 37.8292243,52.2254512 42.1714966,49.1974592 C43.6475563,48.1681601 52.4996094,50.495963 53.7401266,49.1974592 C55.3118172,47.5523017 49.1945331,42.2055703 50.3140064,40.2027695 C52.4958528,36.2993235 53.7401266,31.7956723 53.7401266,27 C53.7401266,12.0883118 41.7099895,0 26.8700633,0 C12.0301371,0 0,12.0883118 0,27 C0,41.9116882 12.0301371,54 26.8700633,54 Z" id="Oval" fill="#F78C2C"></path>
                <path d="M16.7206208,37 L16.7206208,28.0666667 L25.9334812,28.0666667 L25.9334812,37 L31.654102,37 L31.654102,14.7666667 L25.9334812,14.7666667 L25.9334812,23.0666667 L16.7206208,23.0666667 L16.7206208,14.7666667 L11,14.7666667 L11,37 L16.7206208,37 Z M38.0731707,18.8666667 C39.7028825,18.8666667 41,17.5666667 41,15.9333333 C41,14.3 39.7028825,13 38.0731707,13 C36.443459,13 35.1463415,14.3 35.1463415,15.9333333 C35.1463415,17.5666667 36.443459,18.8666667 38.0731707,18.8666667 Z M40.6341463,37 L40.6341463,20.9 L35.5121951,20.9 L35.5121951,37 L40.6341463,37 Z" id="Hi" fill="#FFFFFF" fill-rule="nonzero"></path>
                <path d="M75.8239761,37.9459459 L75.8239761,35.0505288 L64.3089232,35.0505288 L64.3089232,28.2068155 L75.5923515,28.2068155 L75.5923515,25.3113984 L64.3089232,25.3113984 L64.3089232,18.8954172 L75.8239761,18.8954172 L75.8239761,16 L61,16 L61,37.9459459 L75.8239761,37.9459459 Z M82.8719826,37.9459459 L82.8719826,26.5945946 C83.6661242,25.4430082 85.2213181,24.2914219 86.7765121,24.2914219 C88.7949552,24.2914219 89.5890968,25.5088132 89.5890968,27.3513514 L89.5890968,37.9459459 L92.5671277,37.9459459 L92.5671277,26.5616921 C93.3281801,25.4101058 94.9164632,24.2914219 96.5378356,24.2914219 C98.4901004,24.2914219 99.3173312,25.5088132 99.3173312,27.3513514 L99.3173312,37.9459459 L102.295362,37.9459459 L102.295362,26.4629847 C102.295362,23.2714454 100.707079,21.6592244 97.7621372,21.6592244 C95.4128017,21.6592244 93.2950909,23.1398355 92.3685924,24.6204465 C91.8722539,22.9095182 90.4494169,21.6592244 88.0339029,21.6592244 C85.6514782,21.6592244 83.5337673,23.3043478 82.8719826,24.2914219 L82.8719826,22.0540541 L79.8939517,22.0540541 L79.8939517,37.9459459 L82.8719826,37.9459459 Z M110.005153,44 L110.005153,35.6427732 C111.295633,37.386604 113.14863,38.3407756 115.233252,38.3407756 C119.402495,38.3407756 122.347437,35.1821387 122.347437,29.9835488 C122.347437,24.7849589 119.402495,21.6592244 115.233252,21.6592244 C113.082452,21.6592244 111.163276,22.7450059 110.005153,24.3243243 L110.005153,22.0540541 L107.027122,22.0540541 L107.027122,44 L110.005153,44 Z M114.43911,35.7085781 C112.619203,35.7085781 110.799295,34.6227967 110.005153,33.3725029 L110.005153,26.6274971 C110.799295,25.3443008 112.619203,24.2914219 114.43911,24.2914219 C117.417141,24.2914219 119.237049,26.693302 119.237049,29.9835488 C119.237049,33.306698 117.417141,35.7085781 114.43911,35.7085781 Z M129.09764,37.9459459 L129.09764,16 L126.119609,16 L126.119609,37.9459459 L129.09764,37.9459459 Z M141.109032,38.3407756 C143.689992,38.3407756 145.94006,37.5182139 147.528343,35.9717979 L146.138595,34.0305523 C144.947383,35.2479436 143.094386,35.9059929 141.406835,35.9059929 C138.197179,35.9059929 136.211825,33.6686251 135.980201,30.9706228 L148.620287,30.9706228 L148.620287,30.2467685 C148.620287,25.3772033 145.642257,21.6592244 140.844318,21.6592244 C136.178736,21.6592244 132.836724,25.3772033 132.836724,29.9835488 C132.836724,34.9847239 136.344182,38.3407756 141.109032,38.3407756 Z M145.708435,28.8319624 L135.947111,28.8319624 C136.112558,26.6603995 137.634662,24.0940071 140.844318,24.0940071 C144.21942,24.0940071 145.642257,26.7262045 145.708435,28.8319624 Z M159.440467,38.3407756 C164.436941,38.3407756 167.514239,34.5898942 167.514239,29.9835488 C167.514239,25.4101058 164.436941,21.6592244 159.440467,21.6592244 C154.477082,21.6592244 151.366694,25.4101058 151.366694,29.9835488 C151.366694,34.5898942 154.477082,38.3407756 159.440467,38.3407756 Z M159.440467,35.7085781 C156.2639,35.7085781 154.477082,33.0105758 154.477082,29.9835488 C154.477082,26.9894242 156.2639,24.2914219 159.440467,24.2914219 C162.650122,24.2914219 164.403851,26.9894242 164.403851,29.9835488 C164.403851,33.0105758 162.650122,35.7085781 159.440467,35.7085781 Z M176.5476,38.3407756 C180.749932,38.3407756 183,36.2021152 183,33.4712103 C183,30.1724726 180.300525,29.235865 177.729927,28.6248296 L177.455128,28.5605146 C177.272429,28.5183447 177.090904,28.4774648 176.911581,28.4371328 C174.926227,27.9764982 173.205587,27.5158637 173.205587,26.13396 C173.205587,24.8507638 174.462978,24.0611046 176.481421,24.0611046 C178.499864,24.0611046 180.286683,24.8836663 181.213181,26.0023502 L182.536751,23.9294947 C181.180092,22.6462985 179.194738,21.6592244 176.448332,21.6592244 C172.543803,21.6592244 170.359913,23.8307873 170.359913,26.3642773 C170.359913,29.786134 173.53648,30.5099882 176.249797,31.1351351 C178.301329,31.5957697 180.121237,32.1222092 180.121237,33.7015276 C180.121237,35.0505288 178.930024,35.9717979 176.679957,35.9717979 C174.529156,35.9717979 172.411446,34.8860165 171.319501,33.7015276 L169.896664,35.8730905 C171.518036,37.5182139 173.867372,38.3407756 176.5476,38.3407756 Z" id="Empleos" fill="#F78C2C" fill-rule="nonzero"></path>
            </g>
        </g>
    </g>
</svg>

<svg width="183" height="54" xmlns="http://www.w3.org/2000/svg"><g fill="none" fill-rule="evenodd"><path d="M26.87 54c5.686 0 10.96-1.775 15.301-4.803 1.477-1.029 10.329 1.299 11.57 0 1.57-1.645-4.546-6.991-3.427-8.994A26.979 26.979 0 0053.74 27c0-14.912-12.03-27-26.87-27C12.03 0 0 12.088 0 27s12.03 27 26.87 27z" fill="#F78C2C"/><path d="M16.72 37v-8.933h9.213V37h5.721V14.767h-5.72v8.3H16.72v-8.3H11V37h5.72zm21.353-18.133c1.63 0 2.927-1.3 2.927-2.934A2.913 2.913 0 0038.073 13c-1.63 0-2.927 1.3-2.927 2.933a2.913 2.913 0 002.927 2.934zM40.634 37V20.9h-5.122V37h5.122z" fill="#FFF" fill-rule="nonzero"/><path d="M75.824 37.946V35.05H64.309v-6.844h11.283V25.31H64.31v-6.416h11.515V16H61v21.946h14.824zm7.048 0V26.595c.794-1.152 2.35-2.304 3.905-2.304 2.018 0 2.812 1.218 2.812 3.06v10.595h2.978V26.562c.761-1.152 2.35-2.27 3.97-2.27 1.953 0 2.78 1.217 2.78 3.06v10.594h2.978V26.463c0-3.192-1.588-4.804-4.533-4.804-2.35 0-4.467 1.48-5.393 2.961-.497-1.71-1.92-2.96-4.335-2.96-2.383 0-4.5 1.644-5.162 2.631v-2.237h-2.978v15.892h2.978zM110.005 44v-8.357c1.29 1.744 3.144 2.698 5.228 2.698 4.17 0 7.114-3.159 7.114-8.357 0-5.199-2.945-8.325-7.114-8.325-2.15 0-4.07 1.086-5.228 2.665v-2.27h-2.978V44h2.978zm4.434-8.291c-1.82 0-3.64-1.086-4.434-2.336v-6.746c.794-1.283 2.614-2.336 4.434-2.336 2.978 0 4.798 2.402 4.798 5.693 0 3.323-1.82 5.725-4.798 5.725zm14.659 2.237V16h-2.978v21.946h2.978zm12.011.395c2.581 0 4.831-.823 6.42-2.37l-1.39-1.94c-1.192 1.217-3.045 1.875-4.732 1.875-3.21 0-5.195-2.237-5.427-4.935h12.64v-.724c0-4.87-2.978-8.588-7.776-8.588-4.665 0-8.007 3.718-8.007 8.325 0 5 3.507 8.357 8.272 8.357zm4.6-9.509h-9.762c.166-2.172 1.688-4.738 4.897-4.738 3.375 0 4.798 2.632 4.864 4.738zm13.731 9.509c4.997 0 8.074-3.751 8.074-8.357 0-4.574-3.077-8.325-8.074-8.325-4.963 0-8.073 3.751-8.073 8.325 0 4.606 3.11 8.357 8.073 8.357zm0-2.632c-3.176 0-4.963-2.698-4.963-5.725 0-2.995 1.787-5.693 4.963-5.693 3.21 0 4.964 2.698 4.964 5.693 0 3.027-1.754 5.725-4.964 5.725zm17.108 2.632c4.202 0 6.452-2.139 6.452-4.87 0-3.299-2.7-4.235-5.27-4.846l-.275-.064a99.095 99.095 0 00-.543-.124c-1.986-.46-3.706-.921-3.706-2.303 0-1.283 1.257-2.073 3.275-2.073 2.019 0 3.806.823 4.732 1.941l1.324-2.073c-1.357-1.283-3.342-2.27-6.089-2.27-3.904 0-6.088 2.172-6.088 4.705 0 3.422 3.176 4.146 5.89 4.771 2.051.46 3.871.987 3.871 2.567 0 1.349-1.191 2.27-3.441 2.27-2.15 0-4.269-1.086-5.36-2.27l-1.423 2.171c1.621 1.645 3.97 2.468 6.65 2.468z" fill="#F78C2C" fill-rule="nonzero"/></g></svg>
